X: 2855
T: Barge Inn, The
R: reel
M: 4/4
K: Dmixolydian
dcAc de=fe|dcAG ~E3G|cAGA c2ed|cdeg afge|
dcAc de=fe|dcAG ~E3G|cG~G2 cdeg|agec Add^c:|
|:d2fd adfe|defg afge|cded cAGA|cG~G2 cege|
d2fd adfe|defg afge|cG~G2 cdeg|agec Add^c:|

